svgs/sharp-regular/arrows-to-dotted-line.svg

<svg xmlns="http://www.w3.org/2000/svg" viewBox="0 0 448 512"><!--! Font Awesome Pro 6.6.0 by @fontawesome - https://fontawesome.com License - https://fontawesome.com/license (Commercial License) Copyright 2024 Fonticons, Inc. --><path d="M224 201.9l17-17 72-72 17-17L296 62.1 279 79l-31 31L248 24l0-24L200 0l0 24 0 86.1L169 79l-17-17L118.1 96l17 17 72 72 17 17zM0 224l0 64 64 0 0-64L0 224zm96 0l0 64 64 0 0-64-64 0zm96 0l0 64 64 0 0-64-64 0zm96 0l0 64 64 0 0-64-64 0zm160 0l-64 0 0 64 64 0 0-64zM241 327l-17-17-17 17-72 72-17 17L152 449.9l17-17 31-31 0 86.1 0 24 48 0 0-24 0-86.1 31 31 17 17L329.9 416l-17-17-72-72z"/></svg>

<svg xmlns="http://www.w3.org/2000/svg" viewBox="0 0 448 512"><!--! Font Awesome Pro 6.4.0 by @fontawesome - https://fontawesome.com License - https://fontawesome.com/license (Commercial License) Copyright 2023 Fonticons, Inc. --><path d="M224 201.9l17-17 72-72 17-17L296 62.1 279 79l-31 31L248 24V0H200V24l0 86.1L169 79l-17-17L118.1 96l17 17 72 72 17 17zM0 224v64H64V224H0zm96 0v64h64V224H96zm96 0v64h64V224H192zm96 0v64h64V224H288zm160 0H384v64h64V224zM241 327l-17-17-17 17-72 72-17 17L152 449.9l17-17 31-31V488v24h48V488 401.9l31 31 17 17L329.9 416l-17-17-72-72z"/></svg>
